packages/react/src/components/base/Icon/assets/icon-person-simple-ski.svg

<svg width="24" height="24" viewBox="0 0 24 24" xmlns="http://www.w3.org/2000/svg" fill="currentColor"> <path d="M16.531 8.81445C17.1244 8.81445 17.7044 8.63851 18.1977 8.30886C18.6911 7.97922 19.0756 7.51068 19.3027 6.96251C19.5297 6.41433 19.5891 5.81113 19.4734 5.22918C19.3576 4.64724 19.0719 4.11269 18.6523 3.69313C18.2328 3.27358 17.6982 2.98785 17.1163 2.8721C16.5343 2.75634 15.9311 2.81575 15.383 3.04282C14.8348 3.26988 14.3663 3.6544 14.0366 4.14774C13.707 4.64109 13.531 5.22111 13.531 5.81445C13.531 6.6101 13.8471 7.37317 14.4097 7.93577C14.9723 8.49838 15.7354 8.81445 16.531 8.81445ZM16.531 5.06445C16.6794 5.06445 16.8244 5.10844 16.9477 5.19085C17.071 5.27326 17.1672 5.3904 17.2239 5.52744C17.2807 5.66449 17.2955 5.81529 17.2666 5.96077C17.2377 6.10626 17.1662 6.2399 17.0613 6.34478C16.9565 6.44967 16.8228 6.5211 16.6773 6.55004C16.5318 6.57898 16.3811 6.56413 16.244 6.50736C16.107 6.4506 15.9898 6.35447 15.9074 6.23113C15.825 6.1078 15.781 5.96279 15.781 5.81445C15.781 5.61554 15.86 5.42478 16.0007 5.28412C16.1413 5.14347 16.3321 5.06445 16.531 5.06445ZM2.70102 7.74945C2.78456 7.46302 2.97847 7.22151 3.24008 7.07804C3.50169 6.93458 3.80958 6.90091 4.09602 6.98446L10.4241 8.82945L11.236 8.01852C11.3405 7.91364 11.4647 7.83042 11.6015 7.77364C11.7382 7.71686 11.8848 7.68763 12.0329 7.68763C12.181 7.68763 12.3276 7.71686 12.4643 7.77364C12.6011 7.83042 12.7253 7.91364 12.8298 8.01852L15.4998 10.6895H18.781C19.0794 10.6895 19.3655 10.808 19.5765 11.019C19.7875 11.2299 19.906 11.5161 19.906 11.8145C19.906 12.1128 19.7875 12.399 19.5765 12.6099C19.3655 12.8209 19.0794 12.9395 18.781 12.9395H15.031C14.7329 12.9394 14.4469 12.8211 14.236 12.6104L13.7776 12.152L3.46508 9.14539C3.32323 9.10393 3.19094 9.03493 3.07577 8.94233C2.9606 8.84973 2.8648 8.73535 2.79384 8.60572C2.72289 8.47608 2.67817 8.33374 2.66224 8.18682C2.64632 8.0399 2.65949 7.89128 2.70102 7.74945ZM22.4045 20.0241C21.5641 20.5846 20.6112 20.9543 19.6126 21.107C18.6141 21.2597 17.5943 21.1919 16.6248 20.9082L1.96695 16.6435C1.81754 16.6093 1.6767 16.5449 1.55308 16.4542C1.42945 16.3636 1.32565 16.2487 1.24805 16.1165C1.17045 15.9843 1.12068 15.8376 1.1018 15.6855C1.08292 15.5334 1.09532 15.379 1.13825 15.2319C1.18118 15.0847 1.25373 14.9479 1.35145 14.8298C1.44916 14.7117 1.56998 14.6148 1.70649 14.5451C1.843 14.4753 1.99232 14.4342 2.14529 14.4243C2.29825 14.4144 2.45163 14.4358 2.59602 14.4873L10.0885 16.6688L11.3832 15.3741L7.97164 14.3954C7.82708 14.357 7.69161 14.2902 7.57316 14.1989C7.45472 14.1076 7.35567 13.9936 7.28182 13.8635C7.20797 13.7334 7.1608 13.59 7.14306 13.4414C7.12532 13.2929 7.13737 13.1424 7.17851 12.9986C7.21965 12.8548 7.28904 12.7206 7.38265 12.604C7.47625 12.4873 7.59217 12.3905 7.72363 12.3192C7.8551 12.2478 7.99947 12.2034 8.14829 12.1886C8.29712 12.1737 8.44742 12.1887 8.59039 12.2326L13.8404 13.7326C14.0283 13.7866 14.199 13.8886 14.3354 14.0287C14.4719 14.1688 14.5695 14.342 14.6186 14.5313C14.6678 14.7205 14.6667 14.9194 14.6155 15.1081C14.5644 15.2968 14.4649 15.469 14.327 15.6076L12.5523 17.3832L17.2491 18.752C17.9046 18.944 18.5943 18.9898 19.2694 18.8863C19.9446 18.7828 20.5888 18.5324 21.1566 18.1529C21.4053 17.9874 21.7095 17.9275 22.0023 17.9863C22.2951 18.0451 22.5526 18.2178 22.718 18.4665C22.8835 18.7151 22.9434 19.0193 22.8846 19.3121C22.8258 19.605 22.6531 19.8624 22.4045 20.0279V20.0241Z"/> </svg>

<svg viewBox="0 0 24 24" xmlns="http://www.w3.org/2000/svg" aria-hidden="true" fill="currentColor"><path d="M16.531 8.814a3 3 0 1 0 0-5.999 3 3 0 0 0 0 6m0-3.75a.75.75 0 1 1 0 1.5.75.75 0 0 1 0-1.5M2.701 7.75a1.125 1.125 0 0 1 1.395-.765l6.328 1.845.812-.81a1.124 1.124 0 0 1 1.594 0l2.67 2.67h3.281a1.125 1.125 0 1 1 0 2.25h-3.75c-.298 0-.584-.118-.795-.329l-.458-.458L3.465 9.145a1.125 1.125 0 0 1-.764-1.396m19.704 12.275a6.92 6.92 0 0 1-5.78.884L1.967 16.643a1.123 1.123 0 0 1-.616-1.813 1.125 1.125 0 0 1 1.245-.343l7.493 2.182 1.294-1.295-3.411-.979a1.126 1.126 0 0 1-.248-2.076 1.12 1.12 0 0 1 .866-.086l5.25 1.5a1.124 1.124 0 0 1 .487 1.875l-1.775 1.775 4.697 1.369a4.67 4.67 0 0 0 3.908-.6 1.126 1.126 0 0 1 1.247 1.876z"/></svg>
